X:1
T:Osasco, 77.77 D
T:Osasco, 77.77 D
T:James McGranahan, 1895
T:Public Domain Courtesy of the Cyber Hymnal™
C:James McGranahan, 1895
Z:Public Domain
Z:Courtesy of the Cyber Hymnal™
%%score ( 1 2 ) ( 3 4 )
L:1/8
Q:1/4=110
M:4/4
K:G
V:1 treble 
V:2 treble 
V:3 bass 
V:4 bass 
V:1
 D2 [DB]2 [DA]2 [DG]2 | [DG]2 [DF]2 [DF]4 | [DF]2 [Dc]2 [CE]2 [CF]2 | [CE]2 [B,D]2 [DB]4 | %4
 [DB]2 [Gd]2 [Dd]2 [=FB]2 | [EA]2 [CE]2 [EA]2 [Ec]>[Ec] | [DB]2 [DA]2 [DG]2 [DF]2 | [DG]6 z2 | %8
 [Dd]3 [Dd] [Dd]3 D | [DG]2 [FA]2 [GB]4 | [Dd]3 [Dd] [Dd]3 D | A2 [^GB]2 [Ac]4 | %12
 [ce]3 [ce] ([ce][Bd]) ([Ac][GB]) | [FA]2 [GB]2 ([Ac]2 [Ge]2) | [=Fd]3 [Fd] [Ed]3 [Ec] | %15
 [DB]2 [DA]2 [DG]4 |] %16
V:2
 D2 x6 | x8 | x8 | x8 | x8 | x8 | x8 | x8 | x7 D | x8 | x7 D | A2 x6 | x8 | x8 | x8 | x8 |] %16
V:3
 [G,B,]2 [G,D]2 [G,C]2 [G,B,]2 | [D,C]2 [D,C]2 [D,C]4 | [D,C]2 [D,F,]2 [D,G,]2 [D,A,]2 | %3
 [G,,G,]2 [G,,G,]2 [G,,G,]4 | G,2 [G,B,]2 [F,A,]2 G,2 | [C,A,]2 [C,A,]2 [C,A,]2 [C,G,]>[C,G,] | %6
 [D,G,]2 [D,F,]2 [D,B,]2 [D,C]2 | [G,B,]6 z2 | [D,D]3 [D,D] [D,D]3 [CD] | [B,D]2 [A,D]2 [G,D]4 | %10
 [D,D]3 [D,D] [D,D]3 [D,D] | [CE]2 [B,E]2 [A,E]4 | z8 | z8 | [G,B,]3 [G,B,] [C,G,]3 [C,G,] | %15
 [D,G,]2 [D,C]2 [G,,B,]4 |] %16
V:4
 x8 | x8 | x8 | x8 | G,2 x2 G,2 x2 | x8 | x8 | x8 | x8 | x8 | x8 | x8 | x8 | x8 | x8 | x8 |] %16

